src/img/iconos/icon1DM.svg

<svg width="380" height="380" viewBox="0 0 380 380" fill="none" xmlns="http://www.w3.org/2000/svg">
<g clip-path="url(#clip0_795_43)">
<path d="M16.6003 290.1C16.5003 290.5 16.4003 290.9 16.3003 291.3C16.3003 295.7 16.2003 300.1 16.3003 304.4C16.4003 310.7 20.3003 313.9 27.6003 313.9H352.5C353.5 313.9 354.5 313.9 355.5 313.8C359.8 313.4 363.4 310.2 363.6 305.8C363.9 300.6 363.7 295.4 363.7 290L16.6003 290.1ZM69.1003 308C63.5003 308 57.9003 308 52.3003 308C46.7003 308 41.0003 308 35.5003 308C31.1003 308 28.4003 305.7 28.4003 302.1C28.4003 298.5 31.0003 296.1 35.4003 296.1C46.6003 296.1 57.9003 296.1 69.1003 296.1C73.5003 296.1 76.2003 298.4 76.2003 302C76.2003 305.6 73.5003 307.9 69.1003 308ZM92.6003 308C91.2003 308 89.8003 308 88.5003 308C84.7003 307.8 82.2003 305.4 82.2003 302C82.2003 298.6 84.7003 296.2 88.6003 296.1C89.5003 296.1 90.4003 296.1 91.2003 296.1H92.7003C97.4003 296.2 100.1 298.4 100.1 302.1C100.1 305.8 97.3003 307.9 92.6003 308Z" fill="black"/>
<path d="M27.4998 326H141C139.6 334.2 138.3 342 137 350C128.8 350 120.9 350 113.1 350C108.4 350 106.3 352.3 106.2 357C106.1 360.6 106.2 364.2 106.2 368H102.5C95.7998 368 88.9998 367.9 82.2998 368.1C79.0998 368 76.3998 370.5 76.2998 373.8C76.2998 373.9 76.2998 374 76.2998 374.1C76.2998 377.4 78.6998 379.8 82.1998 380.1C83.0998 380.2 83.9998 380.1 84.7998 380.1H295.2C296.2 380.2 297.2 380.2 298.2 380.1C301.3 379.9 303.8 377.3 303.8 374.2C303.9 371 301.4 368.4 298.2 368.2C295.8 368 293.5 368.1 291.1 368.1H273.8C273.8 364.7 273.8 361.9 273.8 359C273.8 351.8 272.2 350.1 265.1 350.1H243C241.7 342 240.4 334.2 239 326.1H352.8C367 326.1 375.7 317.5 375.7 303.3C375.7 295.9 375.7 288.5 375.7 281.2C375.7 215.8 375.7 150.4 375.7 85.1C375.8 83.2 375.6 81.4 375.3 79.5C373.3 68.8 365 62 354 62C316.4 62 278.9 62 241.3 62C239.5 62 237.7 62.3 236.7 60C227.2 39.5 211.4 24.3 194.5 10C191.2 7.20004 188.6 7.30004 185.2 10.2C180.8 14 176.4 17.9 172.1 21.8C160.5 32.1 151 44.6 144 58.5C142.7 61.2 141.2 62 138.3 62C101.4 61.9 64.3998 61.9 27.4998 61.9C12.7998 61.9 4.2998 70.4 4.2998 85.2C4.2998 150.5 4.2998 215.7 4.2998 281C4.2998 288.2 4.2998 295.5 4.2998 302.7C4.2998 317.5 12.7998 326 27.4998 326ZM261.7 362.2V367.8H118.3V362.2H261.7ZM149.2 349.8C150.5 341.8 151.8 333.9 153.1 326.1H226.8C228.1 334 229.4 341.8 230.7 349.8H149.2ZM363.6 306C363.4 310.3 359.8 313.5 355.5 314C354.5 314.1 353.5 314.1 352.5 314.1H27.5998C20.2998 314.1 16.4998 310.9 16.2998 304.6C16.1998 300.2 16.2998 295.8 16.2998 291.5C16.3998 291.1 16.3998 290.7 16.5998 290.3H363.7C363.6 295.5 363.9 300.8 363.6 306ZM172 252.3C172 257.8 174.1 259.9 179.4 259.9C186.5 259.9 193.6 259.9 200.7 259.9C205.8 259.9 207.9 257.7 207.9 252.5C207.9 247.1 207.9 241.8 207.9 236.1H225.7V277.7H154.4V236.1H172C172 241.7 172 247 172 252.3ZM184.2 247.7V200.2H195.8V247.7H184.2ZM238.2 236.2C248.8 235.3 248.8 235.3 250.3 224H289.8C296 224 298 221.9 297.8 215.5C297 190.6 277.6 168.7 252.8 164.7C252 164.6 251.1 164.4 249.9 164.2C249.9 149 249.8 133.9 249.9 118.8C250 103.6 247.6 88.4 242.8 74H352.2C360.6 74 363.8 77.1 363.8 85.5V277.9H238.2V236.2ZM250 211.7V176.9C265.5 176.6 283.9 194.9 285 211.7H250ZM181.4 29.6C184 27.3 186.6 24.9 189.2 22.6C189.4 22.5 189.7 22.3 189.9 22.3C214.8 41.6 231.3 66.3 236.2 97.8C237.2 105 237.7 112.2 237.7 119.4C237.8 152.6 237.8 185.9 237.8 219.1V223.7H208V213.8C208 207.6 208 201.3 208 195C208 190.1 205.8 187.9 200.9 187.9C193.8 187.8 186.7 187.9 179.6 187.9C174.2 187.9 172.1 190 172.1 195.3C172.1 204.7 172.1 214 172.1 223.7H142.1V219.2C142.1 185.6 142.1 152 142.1 118.4C142 82.9 155 53.3 181.4 29.6ZM16.2998 273.4V85.9C16.2998 76.9 19.1998 73.9 28.0998 73.9H137.2C132.4 88.3 130 103.4 130.1 118.6C130.3 133.7 130.1 148.8 130.1 162.9C122.4 166 114.8 168.1 108.3 172C91.9998 181.8 83.4998 196.8 82.2998 215.8C81.8998 221.8 84.0998 224 90.0998 224H129.2C130.2 227.7 130.1 231.9 132.1 233.9C134.1 235.9 138.3 235.9 141.9 236.9V277.7H16.2998V273.4ZM130.1 211.9H95.2998C95.2998 196.2 112.3 178 129.9 176.8C130 177.5 130.1 178.3 130.1 179C130.1 189.8 130.1 200.6 130.1 211.9Z" fill="#F24E1E"/>
<path d="M190.299 151.9C213.499 151.8 232.199 132.9 232.099 109.7C231.999 86.5001 213.099 67.8001 189.899 67.9001C166.899 68.0001 148.299 86.5001 148.099 109.5C147.899 132.7 166.499 151.7 189.699 151.9C189.899 151.9 190.099 151.9 190.299 151.9ZM190.199 79.9001C206.799 80.0001 220.099 93.5001 220.099 110C220.099 126.5 206.499 139.9 189.999 139.9C173.499 139.8 160.099 126.4 160.099 109.8C160.099 93.3001 173.599 79.9001 190.199 79.9001Z" fill="#F24E1E"/>
<path d="M190 133.9C203.3 133.9 214 123.2 214.1 110C214.1 96.6999 203.4 85.9999 190.2 85.8999C177 85.8999 166.2 96.4999 166.1 109.8C166 123.1 176.7 133.9 190 133.9ZM190.2 97.8999C196.8 97.9999 202.1 103.4 202 110.1C201.9 116.7 196.5 122 189.8 121.9C183.2 121.8 177.9 116.4 178 109.7V109.6C178.2 103.1 183.6 97.8999 190.2 97.8999Z" fill="#F24E1E"/>
</g>
<defs>
<clipPath id="clip0_795_43">
<rect width="380" height="380" fill="white"/>
</clipPath>
</defs>
</svg>

<?xml version="1.0" encoding="utf-8"?>
<!-- Generator: Adobe Illustrator 24.1.0, SVG Export Plug-In . SVG Version: 6.00 Build 0)  -->
<svg version="1.1" id="Capa_1" xmlns="http://www.w3.org/2000/svg" xmlns:xlink="http://www.w3.org/1999/xlink" x="0px" y="0px"
	 viewBox="0 0 380 380" style="enable-background:new 0 0 380 380;" xml:space="preserve">
<style type="text/css">
	.st0{fill:none;}
	.st1{fill:#00B8D9;}
	.st2{fill:#AAAAAA;}
</style>
<path class="st0" d="M142.1,219.3v4.5H172c0-9.7,0-19.1,0-28.4c0-5.4,2.1-7.4,7.5-7.4c7.1,0,14.2,0,21.3,0c4.9,0,7,2.2,7.1,7.1
	c0,6.2,0,12.5,0,18.8v9.9h29.9v-4.6c0-33.2,0.1-66.5-0.1-99.7c0-7.2-0.5-14.5-1.5-21.6c-5-31.6-21.4-56.2-46.3-75.5
	c-0.3,0.1-0.5,0.2-0.7,0.3c-2.6,2.3-5.2,4.6-7.8,7C155,53.3,142,82.9,142.1,118.4C142.1,152.1,142.1,185.7,142.1,219.3z M189.9,67.9
	c23.2-0.1,42.1,18.6,42.2,41.8c0.1,23.2-18.6,42.1-41.8,42.2s-42.1-18.6-42.2-41.8c0-0.2,0-0.4,0-0.6
	C148.3,86.6,166.9,68,189.9,67.9z"/>
<path class="st0" d="M250.1,176.9v34.8h35C284,194.9,265.6,176.6,250.1,176.9z"/>
<path class="st0" d="M190,121.9c6.6,0,12-5.4,12-12c0-6.6-5.4-12-12-12c-6.5,0-11.9,5.2-12,11.8c-0.1,6.6,5.1,12.1,11.8,12.2
	C189.8,121.9,189.9,121.9,190,121.9z"/>
<path class="st0" d="M363.7,274V85.4c0-8.4-3.1-11.5-11.6-11.5H242.8c4.9,14.4,7.3,29.6,7.1,44.8c-0.2,15.1,0,30.2,0,45.4
	c1.2,0.2,2,0.4,2.9,0.5c24.8,4,44.2,25.9,45,50.8c0.2,6.3-1.8,8.4-8,8.5h-39.5c-1.5,11.3-1.5,11.3-12.1,12.2v41.6h125.5V274z"/>
<path class="st0" d="M195.8,200.1h-11.5v47.5h11.5V200.1z"/>
<path class="st0" d="M95.3,211.9h34.8c0-11.2,0-22,0-32.9c0-0.7-0.1-1.5-0.2-2.2C112.3,178,95.3,196.2,95.3,211.9z"/>
<path class="st0" d="M141.9,236.9c-3.6-1-7.7-0.9-9.8-3s-2-6.3-2.9-9.9H90.1c-6,0-8.2-2.2-7.8-8.2c1.2-19,9.7-34,26.1-43.8
	c6.5-3.9,14.1-5.9,21.8-9.1c0-14.1,0.1-29.2,0-44.3c-0.1-15.2,2.3-30.3,7.1-44.7H28.1c-8.9,0-11.8,3-11.8,12v191.8h125.6V236.9z"/>
<path class="st0" d="M189.6,139.9c16.6,0.2,30.2-13,30.4-29.6c0.2-16.6-13-30.2-29.6-30.4s-30.2,13-30.4,29.6c0,0.1,0,0.2,0,0.3
	C160,126.3,173.2,139.7,189.6,139.9z M190.2,85.9c13.3,0.1,23.9,10.9,23.8,24.1c-0.1,13.3-10.9,23.9-24.1,23.8
	c-13.2-0.1-23.9-10.9-23.8-24.1C166.1,96.6,176.9,85.9,190.2,85.9C190.2,85.9,190.2,85.9,190.2,85.9z"/>
<path class="st0" d="M154.3,236.1v41.6h71.4v-41.6H208c0,5.6,0,11,0,16.4c0,5.2-2.1,7.3-7.2,7.4c-7.1,0-14.2,0-21.3,0
	c-5.3,0-7.3-2.2-7.4-7.6s0-10.7,0-16.2L154.3,236.1z"/>
<path class="st1" d="M16.6,290.1c-0.1,0.4-0.2,0.8-0.3,1.2c0,4.4-0.1,8.8,0,13.1c0.1,6.3,4,9.5,11.3,9.5h324.9c1,0,2,0,3-0.1
	c4.3-0.4,7.9-3.6,8.1-8c0.3-5.2,0.1-10.4,0.1-15.8L16.6,290.1z M69.1,308c-5.6,0-11.2,0-16.8,0s-11.3,0-16.8,0
	c-4.4,0-7.1-2.3-7.1-5.9s2.6-6,7-6c11.2,0,22.5,0,33.7,0c4.4,0,7.1,2.3,7.1,5.9S73.5,307.9,69.1,308z M92.6,308c-1.4,0-2.8,0-4.1,0
	c-3.8-0.2-6.3-2.6-6.3-6s2.5-5.8,6.4-5.9c0.9,0,1.8,0,2.6,0h1.5c4.7,0.1,7.4,2.3,7.4,6S97.3,307.9,92.6,308z"/>
<path class="st2" d="M27.5,326H141c-1.4,8.2-2.7,16-4,24c-8.2,0-16.1,0-23.9,0c-4.7,0-6.8,2.3-6.9,7c-0.1,3.6,0,7.2,0,11h-3.7
	c-6.7,0-13.5-0.1-20.2,0.1c-3.2-0.1-5.9,2.4-6,5.7c0,0.1,0,0.2,0,0.3c0,3.3,2.4,5.7,5.9,6c0.9,0.1,1.8,0,2.6,0h210.4
	c1,0.1,2,0.1,3,0c3.1-0.2,5.6-2.8,5.6-5.9c0.1-3.2-2.4-5.8-5.6-6c-2.4-0.2-4.7-0.1-7.1-0.1h-17.3c0-3.4,0-6.2,0-9.1
	c0-7.2-1.6-8.9-8.7-8.9H243c-1.3-8.1-2.6-15.9-4-24h113.8c14.2,0,22.9-8.6,22.9-22.8c0-7.4,0-14.8,0-22.1c0-65.4,0-130.8,0-196.1
	c0.1-1.9-0.1-3.7-0.4-5.6C373.3,68.8,365,62,354,62c-37.6,0-75.1,0-112.7,0c-1.8,0-3.6,0.3-4.6-2c-9.5-20.5-25.3-35.7-42.2-50
	c-3.3-2.8-5.9-2.7-9.3,0.2c-4.4,3.8-8.8,7.7-13.1,11.6c-11.6,10.3-21.1,22.8-28.1,36.7c-1.3,2.7-2.8,3.5-5.7,3.5
	c-36.9-0.1-73.9-0.1-110.8-0.1c-14.7,0-23.2,8.5-23.2,23.3c0,65.3,0,130.5,0,195.8c0,7.2,0,14.5,0,21.7C4.3,317.5,12.8,326,27.5,326
	z M261.7,362.2v5.6H118.3v-5.6H261.7z M149.2,349.8c1.3-8,2.6-15.9,3.9-23.7h73.7c1.3,7.9,2.6,15.7,3.9,23.7H149.2z M363.6,306
	c-0.2,4.3-3.8,7.5-8.1,8c-1,0.1-2,0.1-3,0.1H27.6c-7.3,0-11.1-3.2-11.3-9.5c-0.1-4.4,0-8.8,0-13.1c0.1-0.4,0.1-0.8,0.3-1.2h347.1
	C363.6,295.5,363.9,300.8,363.6,306z M172,252.3c0,5.5,2.1,7.6,7.4,7.6c7.1,0,14.2,0,21.3,0c5.1,0,7.2-2.2,7.2-7.4
	c0-5.4,0-10.7,0-16.4h17.8v41.6h-71.3v-41.6H172C172,241.7,172,247,172,252.3z M184.2,247.7v-47.5h11.6v47.5H184.2z M238.2,236.2
	c10.6-0.9,10.6-0.9,12.1-12.2h39.5c6.2,0,8.2-2.1,8-8.5c-0.8-24.9-20.2-46.8-45-50.8c-0.8-0.1-1.7-0.3-2.9-0.5
	c0-15.2-0.1-30.3,0-45.4c0.1-15.2-2.3-30.4-7.1-44.8h109.4c8.4,0,11.6,3.1,11.6,11.5v192.4H238.2L238.2,236.2z M250,211.7v-34.8
	c15.5-0.3,33.9,18,35,34.8L250,211.7z M181.4,29.6c2.6-2.3,5.2-4.7,7.8-7c0.2-0.1,0.5-0.3,0.7-0.3c24.9,19.3,41.4,44,46.3,75.5
	c1,7.2,1.5,14.4,1.5,21.6c0.1,33.2,0.1,66.5,0.1,99.7v4.6H208v-9.9c0-6.2,0-12.5,0-18.8c0-4.9-2.2-7.1-7.1-7.1
	c-7.1-0.1-14.2,0-21.3,0c-5.4,0-7.5,2.1-7.5,7.4c0,9.4,0,18.7,0,28.4h-30v-4.5c0-33.6,0-67.2,0-100.8C142,82.9,155,53.3,181.4,29.6z
	 M16.3,273.4V85.9c0-9,2.9-12,11.8-12h109.1c-4.8,14.4-7.2,29.5-7.1,44.7c0.2,15.1,0,30.2,0,44.3c-7.7,3.1-15.3,5.2-21.8,9.1
	c-16.3,9.8-24.8,24.8-26,43.8c-0.4,6,1.8,8.2,7.8,8.2h39.1c1,3.7,0.9,7.9,2.9,9.9s6.2,2,9.8,3v40.8H16.3V273.4z M130.1,211.9H95.3
	c0-15.7,17-33.9,34.6-35.1c0.1,0.7,0.2,1.5,0.2,2.2C130.1,189.8,130.1,200.6,130.1,211.9z"/>
<path class="st2" d="M190.3,151.9c23.2-0.1,41.9-19,41.8-42.2s-19-41.9-42.2-41.8c-23,0.1-41.6,18.6-41.8,41.6
	c-0.2,23.2,18.4,42.2,41.6,42.4C189.9,151.9,190.1,151.9,190.3,151.9z M190.2,79.9c16.6,0.1,29.9,13.6,29.9,30.1
	s-13.6,29.9-30.1,29.9c-16.5-0.1-29.9-13.5-29.9-30.1C160.1,93.3,173.6,79.9,190.2,79.9C190.2,79.9,190.2,79.9,190.2,79.9z"/>
<path class="st2" d="M190,133.9c13.3,0,24-10.7,24.1-23.9c0-13.3-10.7-24-23.9-24.1c-13.2,0-24,10.6-24.1,23.9
	C166,123.1,176.7,133.9,190,133.9C190,133.9,190,133.9,190,133.9z M190.2,97.9c6.6,0.1,11.9,5.5,11.8,12.2
	c-0.1,6.6-5.5,11.9-12.2,11.8c-6.6-0.1-11.9-5.5-11.8-12.2c0,0,0-0.1,0-0.1C178.2,103.1,183.6,97.9,190.2,97.9L190.2,97.9z"/>
</svg>
